src/assets/icons/delete-icon.svg

<svg width="29" height="28" viewBox="0 0 29 28" fill="none" xmlns="http://www.w3.org/2000/svg">
<g clip-path="url(#clip0_18_3821)">
<path d="M16.9734 12.215L14.5 14.6883L12.015 12.215L10.37 13.86L12.855 16.3333L10.3817 18.8067L12.0267 20.4517L14.5 17.9783L16.9734 20.4517L18.6184 18.8067L16.145 16.3333L18.6184 13.86L16.9734 12.215ZM18.5834 4.66667L17.4167 3.5H11.5834L10.4167 4.66667H6.33337V7H22.6667V4.66667H18.5834ZM7.50004 22.1667C7.50004 23.45 8.55004 24.5 9.83337 24.5H19.1667C20.45 24.5 21.5 23.45 21.5 22.1667V8.16667H7.50004V22.1667ZM9.83337 10.5H19.1667V22.1667H9.83337V10.5Z" fill="#F44336"/>
</g>
<defs>
<clipPath id="clip0_18_3821">
<rect width="28" height="28" fill="white" transform="translate(0.5)"/>
</clipPath>
</defs>
</svg>

<svg width="29" height="28" fill="none" xmlns="http://www.w3.org/2000/svg"><g clip-path="url(#prefix__clip0_18_3821)"><path d="M16.973 12.215L14.5 14.688l-2.485-2.473-1.645 1.645 2.485 2.473-2.473 2.474 1.645 1.645 2.473-2.474 2.473 2.474 1.645-1.645-2.473-2.474 2.473-2.473-1.645-1.645zm1.61-7.548L17.417 3.5h-5.834l-1.166 1.167H6.333V7h16.334V4.667h-4.084zM7.5 22.167A2.34 2.34 0 009.833 24.5h9.334a2.34 2.34 0 002.333-2.333v-14h-14v14zM9.833 10.5h9.334v11.667H9.833V10.5z" fill="#F44336"/></g><defs><clipPath id="prefix__clip0_18_3821"><path fill="#fff" transform="translate(.5)" d="M0 0h28v28H0z"/></clipPath></defs></svg>
